comment-alert.svg

<svg fill="currentColor" viewBox="0 0 24 24"><path d="M9 22c-.6 0-1-.4-1-1v-3H4c-1.1 0-2-.9-2-2V4c0-1.1.9-2 2-2h16c1.1 0 2 .9 2 2v12c0 1.1-.9 2-2 2h-6.1l-3.7 3.7c-.2.2-.4.3-.7.3zm4-11V5h-2v6m2 4v-2h-2v2z"/></svg>

<svg  viewBox="0 0 24 24" fill="currentColor"><path  d="M9 22C8.4 22 8 21.6 8 21V18H4C2.9 18 2 17.1 2 16V4C2 2.9 2.9 2 4 2H20C21.1 2 22 2.9 22 4V16C22 17.1 21.1 18 20 18H13.9L10.2 21.7C10 21.9 9.8 22 9.5 22H9M13 11V5H11V11M13 15V13H11V15H13Z"/></svg>
